public/svg/logo/logo-mobil.svg

<svg width="168" height="32" viewBox="0 0 168 32" fill="none" xmlns="http://www.w3.org/2000/svg">
<path fill-rule="evenodd" clip-rule="evenodd" d="M16.5319 10.9492H14.0866V14.3583H10.6309L10.6309 16.7706H14.0866V20.1794H16.5319V16.7706H19.9875V14.3583H16.5319V10.9492Z" fill="url(#paint0_linear)"/>
<path fill-rule="evenodd" clip-rule="evenodd" d="M29.7217 15.5235C29.7217 23.365 23.365 29.7217 15.5235 29.7217C7.68209 29.7217 1.32535 23.365 1.32535 15.5235C1.32535 7.68209 7.68209 1.32535 15.5235 1.32535C23.365 1.32535 29.7217 7.68209 29.7217 15.5235ZM31.047 15.5235C31.047 24.0969 24.0969 31.047 15.5235 31.047C6.95012 31.047 0 24.0969 0 15.5235C0 6.95012 6.95012 0 15.5235 0C24.0969 0 31.047 6.95012 31.047 15.5235ZM6.52088 25.496C6.24914 25.2502 6.24979 24.8286 6.50886 24.5695C6.76734 24.311 7.18534 24.3123 7.45777 24.556C12.2107 28.8084 19.5151 28.652 24.0803 24.0868C28.8075 19.3597 28.8075 11.6954 24.0803 6.96829C19.5104 2.39838 12.1956 2.24637 7.44305 6.51227C7.1707 6.75674 6.75212 6.75841 6.49333 6.49962C6.23454 6.24083 6.23362 5.81976 6.50467 5.57384C11.776 0.791105 19.9299 0.943537 25.0175 6.03113C30.2622 11.2759 30.2622 19.7793 25.0175 25.024C19.9351 30.1064 11.7927 30.2637 6.52088 25.496ZM5.16462 18.2965C4.8111 18.3913 4.59955 18.7558 4.71439 19.1033C6.59223 24.7855 12.6037 28.0811 18.4578 26.5124C24.5268 24.8863 28.1284 18.6481 26.5022 12.5791C24.8761 6.51015 18.6379 2.90855 12.5689 4.53473C12.3978 4.58059 12.2992 4.75762 12.345 4.92878L12.5234 5.59459C12.5685 5.76284 12.7437 5.86 12.912 5.81492C18.2739 4.37819 23.7853 7.56021 25.2221 12.9222C26.6588 18.2841 23.4768 23.7955 18.1148 25.2323C12.968 26.6114 7.68343 23.7349 5.99703 18.7597C5.87954 18.4131 5.51813 18.2018 5.16462 18.2965ZM14.7728 6.33211C15.1404 6.30197 15.4424 6.60241 15.4424 6.97129C15.4424 7.33457 15.1491 7.62731 14.7875 7.66135C10.7785 8.0386 7.64154 11.4135 7.64154 15.5212C7.64154 19.8814 11.1762 23.416 15.5364 23.416C19.6715 23.416 23.0641 20.2369 23.4034 16.1895C23.4339 15.825 23.7277 15.5276 24.0935 15.5276C24.4596 15.5276 24.7589 15.8256 24.7327 16.1908C24.3896 20.9704 20.4034 24.7414 15.5364 24.7414C10.4442 24.7414 6.31619 20.6133 6.31619 15.5212C6.31619 10.6861 10.0378 6.72031 14.7728 6.33211Z" fill="url(#paint1_linear)"/>
<path d="M42.54 8.2506H36V21.7446H37.9718V10.1012H42.54V8.2506Z" fill="#DA3E0C"/>
<path d="M47.1839 19.9133V15.788H51.5374V13.9952H47.1839V10.0819H51.9083V8.2506H45.2121V21.7446H52.1035V19.9133H47.1839Z" fill="#DA3E0C"/>
<path d="M58.7985 8.2506H55.1868V21.7446H57.1586V17.0024H58.7985C61.473 17.0024 62.9958 15.441 62.9958 12.6072C62.9958 9.8506 61.473 8.2506 58.7985 8.2506ZM58.7789 15.1518H57.1586V10.1012H58.7789C60.2626 10.1012 60.985 10.9494 60.985 12.6072C60.985 14.3422 60.2626 15.1518 58.7789 15.1518Z" fill="#DA3E0C"/>
<path d="M69.7305 21.9952C72.3465 21.9952 73.9083 20.2795 73.9083 17.4651V12.5301C73.9083 9.71566 72.3465 8 69.7305 8C67.1145 8 65.5527 9.71566 65.5527 12.5301V17.4651C65.5527 20.2795 67.1145 21.9952 69.7305 21.9952ZM69.7305 20.0867C68.3054 20.0867 67.5831 19.1614 67.5831 17.4651V12.5301C67.5831 10.8337 68.3054 9.90843 69.7305 9.90843C71.1361 9.90843 71.878 10.8337 71.878 12.5301V17.4651C71.878 19.1614 71.1361 20.0867 69.7305 20.0867Z" fill="#DA3E0C"/>
<path d="M85.9208 8.2506L83.6172 13.7253C83.3048 14.4964 82.8363 15.788 82.6215 16.4048H82.5435C82.3287 15.788 81.8602 14.4964 81.5478 13.7253L79.2442 8.2506H77.2334V21.7446H79.1661V16.4819C79.127 14.9398 79.0685 13.5325 79.0099 12.1253L79.088 12.0867C79.4784 13.1663 79.947 14.4 80.4155 15.6337L81.6064 18.6988H83.5586L84.7495 15.6337C85.218 14.4 85.6866 13.1663 86.077 12.0867L86.1551 12.1253C86.077 13.5325 86.038 14.9398 85.9989 16.4819V21.7446H87.9316V8.2506H85.9208Z" fill="#DA3E0C"/>
<path d="M93.6219 19.9133V15.788H97.9754V13.9952H93.6219V10.0819H98.3463V8.2506H91.6502V21.7446H98.5416V19.9133H93.6219Z" fill="#DA3E0C"/>
<path d="M109.531 19.9133V8.2506H102.952L102.718 14.7663C102.64 16.8867 102.172 18.9108 101.176 19.9133H100.375V24H102.308V21.7446H108.809V24H110.742V19.9133H109.531ZM107.579 19.9133H103.538C104.182 18.7759 104.534 17.2145 104.612 15.306L104.807 10.0819H107.579V19.9133Z" fill="#DA3E0C"/>
<path d="M113.449 21.7446H115.44L118.739 14.3614C119.071 13.6096 119.462 12.5687 119.716 11.8747L119.774 11.9133C119.677 13.0313 119.598 14.8434 119.598 15.8651V21.7446H121.531V8.2506H119.52L116.202 15.6916C115.831 16.4819 115.479 17.4265 115.225 18.0819L115.167 18.0434C115.303 16.8675 115.382 15.1133 115.382 14.1494V8.2506H113.449V21.7446Z" fill="#DA3E0C"/>
<path d="M132.282 24H134.215V19.894H132.966V8.2506H130.994V19.894H127.206V8.2506H125.235V21.7446H132.282V24Z" fill="#DA3E0C"/>
<path d="M136.925 21.7446H138.917L142.216 14.3614C142.548 13.6096 142.938 12.5687 143.192 11.8747L143.251 11.9133C143.153 13.0313 143.075 14.8434 143.075 15.8651V21.7446H145.008V8.2506H142.997L139.678 15.6916C139.307 16.4819 138.956 17.4265 138.702 18.0819L138.643 18.0434C138.78 16.8675 138.858 15.1133 138.858 14.1494V8.2506H136.925V21.7446Z" fill="#DA3E0C"/>
<path d="M154.548 8.2506V13.9952H150.683V8.2506H148.711V21.7446H150.683V15.8265H154.548V21.7446H156.52V8.2506H154.548Z" fill="#DA3E0C"/>
<path d="M165.95 21.7446H168L164.564 8.2506H162.436L159 21.7446H161.07L161.694 19.0265H165.306L165.95 21.7446ZM162.124 17.2145L162.963 13.5904C163.178 12.7036 163.373 11.412 163.471 10.6988H163.529C163.627 11.412 163.842 12.7036 164.037 13.5904L164.896 17.2145H162.124Z" fill="#DA3E0C"/>
<defs>
<linearGradient id="paint0_linear" x1="17.226" y1="22.2102" x2="10.7645" y2="10.8731" gradientUnits="userSpaceOnUse">
<stop stop-color="#CE2F03"/>
<stop offset="1" stop-color="#FF6A29"/>
</linearGradient>
<linearGradient id="paint1_linear" x1="11.4699" y1="-2.04928" x2="14.7545" y2="34.0818" gradientUnits="userSpaceOnUse">
<stop stop-color="#ACBF05"/>
<stop offset="1" stop-color="#608D00"/>
</linearGradient>
</defs>
</svg>

<svg width="168" height="32" fill="none" xmlns="http://www.w3.org/2000/svg"><path fill-rule="evenodd" clip-rule="evenodd" d="M16.532 10.95h-2.445v3.408H10.63v2.413h3.456v3.408h2.445v-3.408h3.456v-2.413h-3.456V10.95z" fill="url(#paint0_linear)"/><path fill-rule="evenodd" clip-rule="evenodd" d="M29.722 15.524c0 7.841-6.357 14.198-14.199 14.198-7.84 0-14.198-6.357-14.198-14.199 0-7.84 6.357-14.198 14.199-14.198 7.841 0 14.198 6.357 14.198 14.199zm1.325 0c0 8.573-6.95 15.523-15.524 15.523C6.95 31.047 0 24.097 0 15.523 0 6.95 6.95 0 15.524 0c8.573 0 15.523 6.95 15.523 15.524zM6.521 25.495a.639.639 0 01-.012-.926.692.692 0 01.949-.014c4.753 4.252 12.057 4.096 16.622-.47 4.728-4.726 4.728-12.39 0-17.118-4.57-4.57-11.884-4.722-16.637-.456a.692.692 0 01-.95-.012.639.639 0 01.012-.926C11.776.79 19.93.944 25.017 6.03c5.245 5.245 5.245 13.748 0 18.993-5.082 5.082-13.224 5.24-18.496.472zm-1.356-7.2a.634.634 0 00-.45.807c1.877 5.682 7.889 8.978 13.743 7.41 6.069-1.627 9.67-7.865 8.044-13.934-1.626-6.069-7.864-9.67-13.933-8.044a.32.32 0 00-.224.394l.178.666c.046.168.22.265.389.22 5.362-1.437 10.873 1.745 12.31 7.107 1.437 5.362-1.745 10.873-7.107 12.31-5.147 1.38-10.432-1.497-12.118-6.472a.698.698 0 00-.832-.463zm9.608-11.964c.367-.03.67.27.67.64 0 .363-.294.655-.655.69a7.896 7.896 0 108.615 8.527c.03-.364.325-.661.69-.661.367 0 .666.298.64.663a9.22 9.22 0 11-9.96-9.859z" fill="url(#paint1_linear)"/><path d="M42.54 8.25H36v13.495h1.972V10.1h4.568V8.25zm4.644 11.663v-4.125h4.353v-1.793h-4.353v-3.913h4.724V8.25h-6.696v13.494h6.891v-1.832h-4.92zM58.798 8.25h-3.611v13.495h1.972v-4.743h1.64c2.674 0 4.197-1.561 4.197-4.395 0-2.756-1.523-4.356-4.198-4.356zm-.02 6.902h-1.62v-5.05h1.62c1.485 0 2.207.847 2.207 2.505 0 1.735-.722 2.545-2.206 2.545zm10.952 6.843c2.617 0 4.178-1.716 4.178-4.53V12.53c0-2.814-1.561-4.53-4.177-4.53-2.616 0-4.178 1.716-4.178 4.53v4.935c0 2.814 1.562 4.53 4.178 4.53zm0-1.908c-1.425 0-2.147-.926-2.147-2.622V12.53c0-1.696.722-2.622 2.148-2.622 1.405 0 2.147.926 2.147 2.622v4.935c0 1.696-.742 2.622-2.147 2.622zM85.92 8.25l-2.303 5.475c-.312.771-.78 2.063-.996 2.68h-.078a72.018 72.018 0 00-.995-2.68l-2.304-5.474h-2.01v13.494h1.932v-5.263c-.039-1.542-.097-2.95-.156-4.357l.078-.038c.39 1.08.859 2.313 1.328 3.547l1.19 3.065h1.953l1.19-3.065c.469-1.234.938-2.468 1.328-3.547l.078.038A144.534 144.534 0 0086 16.482v5.263h1.933V8.25H85.92zm7.702 11.663v-4.125h4.353v-1.793h-4.353v-3.913h4.724V8.25H91.65v13.494h6.892v-1.832h-4.92zm15.909 0V8.251h-6.579l-.234 6.515c-.078 2.12-.546 4.145-1.542 5.147h-.801V24h1.933v-2.255h6.501V24h1.933v-4.087h-1.211zm-1.952 0h-4.041c.644-1.137.996-2.698 1.074-4.607l.195-5.224h2.772v9.831zm5.87 1.832h1.991l3.299-7.384c.332-.751.723-1.792.977-2.486l.058.038a56.312 56.312 0 00-.176 3.952v5.88h1.933V8.25h-2.011l-3.318 7.44c-.371.79-.723 1.736-.977 2.39l-.058-.038c.136-1.175.215-2.93.215-3.894V8.251h-1.933v13.494zM132.282 24h1.933v-4.106h-1.249V8.251h-1.972v11.643h-3.788V8.251h-1.971v13.494h7.047V24zm4.643-2.255h1.992l3.299-7.384c.332-.751.722-1.792.976-2.486l.059.038a55.712 55.712 0 00-.176 3.952v5.88h1.933V8.25h-2.011l-3.319 7.44c-.371.79-.722 1.736-.976 2.39l-.059-.038c.137-1.175.215-2.93.215-3.894V8.251h-1.933v13.494zM154.548 8.25v5.745h-3.865V8.251h-1.972v13.494h1.972v-5.919h3.865v5.919h1.972V8.25h-1.972zm11.402 13.495H168L164.564 8.25h-2.128L159 21.745h2.07l.624-2.719h3.612l.644 2.719zm-3.826-4.53l.839-3.625c.215-.886.41-2.178.508-2.891h.058c.098.713.313 2.005.508 2.891l.859 3.625h-2.772z" fill="#DA3E0C"/><defs><linearGradient id="paint0_linear" x1="17.226" y1="22.21" x2="10.764" y2="10.873" gradientUnits="userSpaceOnUse"><stop stop-color="#CE2F03"/><stop offset="1" stop-color="#FF6A29"/></linearGradient><linearGradient id="paint1_linear" x1="11.47" y1="-2.049" x2="14.755" y2="34.082" gradientUnits="userSpaceOnUse"><stop stop-color="#ACBF05"/><stop offset="1" stop-color="#608D00"/></linearGradient></defs></svg>
